Numix-GalliumOS/64/actions/appointment-new.svg

<?xml version="1.0" encoding="UTF-8" standalone="no"?>
<svg
   xmlns:dc="http://purl.org/dc/elements/1.1/"
   xmlns:cc="http://creativecommons.org/ns#"
   xmlns:rdf="http://www.w3.org/1999/02/22-rdf-syntax-ns#"
   xmlns:svg="http://www.w3.org/2000/svg"
   xmlns="http://www.w3.org/2000/svg"
   xmlns:sodipodi="http://sodipodi.sourceforge.net/DTD/sodipodi-0.dtd"
   xmlns:inkscape="http://www.inkscape.org/namespaces/inkscape"
   width="64"
   height="64"
   viewBox="0 0 64 64"
   id="svg2"
   version="1.1"
   inkscape:version="0.91 r13725"
   sodipodi:docname="appointment-new.svg">
  <metadata
     id="metadata16">
    <rdf:RDF>
      <cc:Work
         rdf:about="">
        <dc:format>image/svg+xml</dc:format>
        <dc:type
           rdf:resource="http://purl.org/dc/dcmitype/StillImage" />
      </cc:Work>
    </rdf:RDF>
  </metadata>
  <defs
     id="defs14" />
  <sodipodi:namedview
     pagecolor="#ffffff"
     bordercolor="#666666"
     borderopacity="1"
     objecttolerance="10"
     gridtolerance="10"
     guidetolerance="10"
     inkscape:pageopacity="0"
     inkscape:pageshadow="2"
     inkscape:window-width="1366"
     inkscape:window-height="704"
     id="namedview12"
     showgrid="false"
     inkscape:zoom="7.375"
     inkscape:cx="21.652823"
     inkscape:cy="32"
     inkscape:window-x="0"
     inkscape:window-y="27"
     inkscape:window-maximized="1"
     inkscape:current-layer="svg2" />
  <path
     style="fill:#ffffff;fill-rule:evenodd"
     d="M 62,32 C 62,48.567383 48.567383,62 32,62 15.432617,62 2,48.567383 2,32 2,15.432617 15.432617,2 32,2 48.567383,2 62,15.432617 62,32 Z"
     id="path4"
     inkscape:connector-curvature="0" />
  <path
     style="fill:#268bd2"
     d="M 31.949219 11.148438 C 30.1875 11.175781 28.773438 12.636719 28.800781 14.398438 L 28.800781 32 C 28.800781 32.75 29.0625 33.476562 29.550781 34.050781 L 37.550781 43.648438 C 38.261719 44.613281 39.4375 45.085938 40.613281 44.914062 C 41.789062 44.726562 42.761719 43.914062 43.148438 42.789062 C 43.539062 41.664062 43.261719 40.414062 42.449219 39.550781 L 35.199219 30.851562 L 35.199219 14.398438 C 35.210938 13.539062 34.875 12.699219 34.261719 12.085938 C 33.648438 11.476562 32.8125 11.136719 31.949219 11.148438 Z "
     id="path6" />
  <path
     style="fill:#aaa"
     d="M 32 0 C 14.363281 0 0 14.363281 0 32 C 0 49.636719 14.363281 64 32 64 C 49.636719 64 64 49.636719 64 32 C 64 14.363281 49.636719 0 32 0 Z M 32 6.398438 C 46.175781 6.398438 57.601562 17.824219 57.601562 32 C 57.601562 46.175781 46.175781 57.601562 32 57.601562 C 17.824219 57.601562 6.398438 46.175781 6.398438 32 C 6.398438 17.824219 17.824219 6.398438 32 6.398438 Z "
     id="path8" />
  <path
     style="fill:#859900"
     d="M 64 40 L 52 40 L 52 28 L 40 28 L 40 40 L 28 40 L 28 52 L 40 52 L 40 64 L 52 64 L 52 52 L 64 52 Z "
     id="path10" />
</svg>

<svg xmlns="http://www.w3.org/2000/svg" viewBox="0 0 64 64">
 <path d="m 62 32 c 0 16.567 -13.433 30 -30 30 -16.567 0 -30 -13.433 -30 -30 0 -16.567 13.433 -30 30 -30 16.567 0 30 13.433 30 30" style="fill:#fff;fill-rule:evenodd"/>
 <path d="m 31.949 11.148 c -1.762 0.027 -3.176 1.488 -3.148 3.25 l 0 17.602 c 0 0.75 0.262 1.477 0.75 2.051 l 8 9.598 c 0.711 0.965 1.887 1.438 3.063 1.266 c 1.176 -0.188 2.148 -1 2.535 -2.125 c 0.391 -1.125 0.113 -2.375 -0.699 -3.238 l -7.25 -8.699 l 0 -16.453 c 0.012 -0.859 -0.324 -1.699 -0.938 -2.313 c -0.613 -0.609 -1.449 -0.949 -2.313 -0.938 Z" style="fill:#268bd2"/>
 <path d="m 32 0 c -17.637 0 -32 14.363 -32 32 c 0 17.637 14.363 32 32 32 c 17.637 0 32 -14.363 32 -32 c 0 -17.637 -14.363 -32 -32 -32 m 0 6.398 c 14.176 0 25.602 11.426 25.602 25.602 c 0 14.176 -11.426 25.602 -25.602 25.602 c -14.176 0 -25.602 -11.426 -25.602 -25.602 c 0 -14.176 11.426 -25.602 25.602 -25.602 Z" style="fill:#aaa"/>
 <path d="m 64 40 l -12 0 l 0 -12 l -12 0 l 0 12 l -12 0 l 0 12 l 12 0 l 0 12 l 12 0 l 0 -12 l 12 0 Z" style="fill:#859900"/>
</svg>
